modules/stroke-7/icons/target.svg

<?xml version="1.0" encoding="utf-8"?>
<!-- Generated by IcoMoon.io -->
<!DOCTYPE svg PUBLIC "-//W3C//DTD SVG 1.1//EN" "http://www.w3.org/Graphics/SVG/1.1/DTD/svg11.dtd">
<svg version="1.1" xmlns="http://www.w3.org/2000/svg" xmlns:xlink="http://www.w3.org/1999/xlink" width="32" height="32" viewBox="0 0 32 32">
<g id="icomoon-ignore">
</g>
<path d="M16.056 11.568c-2.355 0-4.266 1.909-4.266 4.266 0 2.355 1.91 4.265 4.266 4.265s4.264-1.91 4.264-4.265c0-2.356-1.909-4.266-4.264-4.266zM16.056 19.033c-1.764 0-3.199-1.435-3.199-3.199s1.435-3.199 3.199-3.199c1.763 0 3.198 1.435 3.198 3.199s-1.435 3.199-3.198 3.199z" fill="#000000"></path>
<path d="M16.056 7.304c-4.711 0-8.53 3.818-8.53 8.53s3.819 8.53 8.53 8.53 8.53-3.819 8.53-8.53c0-4.712-3.819-8.53-8.53-8.53zM16.056 23.297c-4.116 0-7.464-3.348-7.464-7.464s3.348-7.464 7.464-7.464 7.464 3.348 7.464 7.464c0 4.116-3.348 7.464-7.464 7.464z" fill="#000000"></path>
<path d="M28.795 15.834c0-7.067-5.729-12.795-12.795-12.795s-12.795 5.728-12.795 12.795c0 3.894 1.742 7.38 4.487 9.726l-2.182 2.736 0.834 0.665 2.187-2.742c2.102 1.515 4.68 2.41 7.469 2.41 2.777 0 5.344-0.887 7.441-2.39l2.175 2.722 0.833-0.665-2.167-2.713c2.76-2.347 4.513-5.843 4.513-9.749zM4.271 15.834c0-6.467 5.261-11.729 11.729-11.729s11.729 5.261 11.729 11.729c0 6.467-5.261 11.729-11.729 11.729s-11.729-5.262-11.729-11.729z" fill="#000000"></path>
</svg>

<svg xmlns="http://www.w3.org/2000/svg" width="32" height="32" viewBox="0 0 32 32"><path d="M16.056 11.568a4.266 4.266 0 1 0 0 8.532 4.266 4.266 0 0 0 0-8.532zm0 7.465c-1.764 0-3.199-1.435-3.199-3.199s1.435-3.199 3.199-3.199c1.763 0 3.198 1.435 3.198 3.199s-1.435 3.199-3.198 3.199z"/><path d="M16.056 7.304c-4.711 0-8.53 3.818-8.53 8.53s3.819 8.53 8.53 8.53a8.53 8.53 0 1 0 0-17.06zm0 15.993c-4.116 0-7.464-3.348-7.464-7.464s3.348-7.464 7.464-7.464 7.464 3.348 7.464 7.464c0 4.116-3.348 7.464-7.464 7.464z"/><path d="M28.795 15.834c0-7.067-5.729-12.795-12.795-12.795S3.205 8.767 3.205 15.834a12.76 12.76 0 0 0 4.487 9.726L5.51 28.296l.834.665 2.187-2.742A12.728 12.728 0 0 0 16 28.629c2.777 0 5.344-.887 7.441-2.39l2.175 2.722.833-.665-2.167-2.713a12.765 12.765 0 0 0 4.513-9.749zm-24.524 0C4.271 9.367 9.532 4.105 16 4.105s11.729 5.261 11.729 11.729c0 6.467-5.261 11.729-11.729 11.729S4.271 22.301 4.271 15.834z"/></svg>
